assets/icons/bowtie/uE6B0-checkbox.svg

<svg xmlns="http://www.w3.org/2000/svg" viewBox="0 0 448 448"><path d="M160 320.22l-78.516-78.5 22.625-22.626 55.891 55.876 145.5-145.485 22.625 22.625-168.125 168.11zm256-320.22h-416v416h416v-416zm-384 32h352v352h-352v-352z"/></svg>

<svg xmlns="http://www.w3.org/2000/svg" viewBox="0 0 448 448"><path d="M160 320.22l-78.516-78.5 22.625-22.626L160 274.97l145.5-145.485 22.625 22.625L160 320.22zM416 0H0v416h416V0zM32 32h352v352H32V32z"/></svg>
